Obsidian/status/22s/gpm-primary-060-charging.svg

<svg height="22" width="22" xmlns="http://www.w3.org/2000/svg"><g fill="#d3dae3"><path d="m9 4v1h-3v12c0 .55.446 1 1 1h8c.554 0 1-.45 1-1v-12h-3v-1zm2 4v3h3l-3 5v-3h-3z" opacity=".3"/><path d="m6 11v6c0 .55.446 1 1 1h8c.554 0 1-.45 1-1v-6h-2l-3 5v-3h-3l1.1992-2z"/></g></svg>

<svg xmlns="http://www.w3.org/2000/svg" width="22" height="22" version="1.1">
 <defs>
  <style id="current-color-scheme" type="text/css">
   .ColorScheme-Text { color:#d3dae3; } .ColorScheme-Highlight { color:#5294e2; }
  </style>
 </defs>
 <path style="opacity:0.3;fill:currentColor" class="ColorScheme-Text" d="M 9,4 V 5 H 6 V 17 C 6,17.55 6.446,18 7,18 H 15 C 15.554,18 16,17.55 16,17 V 5 H 13 V 4 Z M 11,8 V 11 H 14 L 11,16 V 13 H 8 Z"/>
 <path style="fill:currentColor" class="ColorScheme-Text" d="M 6 11 L 6 17 C 6 17.55 6.446 18 7 18 L 15 18 C 15.554 18 16 17.55 16 17 L 16 11 L 14 11 L 11 16 L 11 13 L 8 13 L 9.1992 11 L 6 11 z"/>
</svg>
